X: 962
M: C
L: 1/8
K: D
V: 1
d |\
|: b |\
a>baf Te>def | TA2A>F A2Af |
a>baf Tedef | B/B/B dA B2Bb |\
abfa Te>def | TA2A>F A2Ad |\
V: 2 clef=bass middle=d
z |\
a2a2 a2a2 | a2a2 a2a2 |\
a2a2 a2a2 | b2b2 b2b :|\
|: z |\
a2a2 a2a2 | a2a2
a2a2 |\
a2a2 a2a2 | b2b2 b2b2 |\
a2a2 a2a2 | a2a2 a2a2 |\
a2a2 a2a2 | b2b2 b2b |]
